X: 1190
T: Kalbim Yine Üzgün
C: Selahaddin Pınar
O: Turkey
F: http://compmusic.upf.edu/node/140
N: beyati--sarki--curcuna--kalbim_yine--selahattin_pinar
N: makam= beyati
N: form= sarki
N: usul= curcuna = 10/8
M: 10/8
L: 1/16
K: C _2/4B   
Q: 1/4=144
%%MIDI tuningsystem comma53
e2f2 g2a2 g2f2 e2f4z2  | e2f2 g2a4g2 f2e4d2  | \
w:  ARANAĞME  |   | 
d2c2 d2e2 f2e2 d2c2 B2A2  | 
w:   | 
A2G2 A2B2 c2d2 e2^3/4f2 g2a2  | a4 c'2b2 a2g2 f2e2 d2c2  | \
w:   |   | 
c2B2 d2c2 B2B2 A2A4z2  | 
w:   | 
e2f2 g2a2 g2f2 e2f4z2  | e2f2 g2a4g2 f2e4d2  | \
w:  ARANAĞME  |   | 
d2c2 d2e2 f2e2 d2c2 B2A2  | 
w:   | 
A2G2 A2B2 c2d2 e2^3/4f2 g2a2  | a4 c'2b2 a2g2 f2e2 d2c2  | \
w:   |   | 
c2B2 d2c2 B2B2 A2A4z2  | 
w:   | 
z4 d2A4B2 c2dc B2BA  | A14A4z2  | z4 e2e2 d2d4c4B2  | \
w:  Kal  |  bim   |  yi ne  *  üz  | 
d8-d2dc cBc4_1/4B^A  | 
w:  gün   | 
_1/4B4 c2c4c4c4d2  | dcBA B4 cdcB AGA4d2  | \
w:  *  se ni  an  |  dım   | 
d6d4d2 B2c4d2  | 
w:  da  de rin  | 
d8-d2c2 BAA4z2  | z4 d2A4B2 c2dc B2BA  | \
w:  den   SAZ  |  Kal  | 
A14A4z2  | z4 e2e2 d2d4c4B2  | 
w:  bim   |  yi ne  *  üz  | 
d8-d2dc cBc4_1/4B^A  | _1/4B4 c2c4c4c4d2  | \
w:  gün   |  *  se ni  an  | 
dcBA B4 cdcB AGA4d2  | 
w:  dım   | 
d6d4d2 B2c4d2  | d8-d2B2 c2d4z2  | z4 d2e4e2 d2e2 d2c2  | \
w:  da  de rin  |  den   SAZ  |  Geç *  tim   | 
g2f2 e2f2 e2f2 e2g2 fed2  | 
w:  yi *  *  ne  *  dün   | 
d4 _7/8e2e2 d2d2 e2dc Bcd2  | g8-g2^3/4f_7/8e eddc d4  | \
w:  es *  ki  *  ha *  zan   |   | 
a2g2 f2e2 d2d2 f2ed c2B2  | 
w:  bah *  *  çe *  le *  rin  | 
d8-d2ef efd6  | cBA2 A2f4f2 e2f2 edc2  | \
w:  den   SAZ  |  *  *  *  Geç *  tim   | 
d2_7/8e2 ^3/4f2g2 {b}agf2 e2d2 c2B2  | 
w:  yi *  *  ne  *  *  *  dün   | 
^3/4f_7/8ede d2d4d2 =e2dc BABc  | \
w:  es *  *  *  *  ki  ha *  zan   | 
d8-d2c4c4B2  | c2B2 A2A4A2 c2B4A2  | 
w:   |  bah *  *  çe le *  rin  | 
A8-A2^3/4f2 .g2a4z2  | z4 g2a4a8-a2  | \
w:  den   SAZ  |  Üz *  gün   | 
a8-a2gf edcB AGA2  | 
w:   | 
z4 c'2c'2 b2b2 a2c'2 bag2  | b14b6  | \
w:  ve  kı *  rıl  |  mış   | 
babc' c'bag a2a4a4z2  | 
w:   | 
z4 a2a2 g2ag fef6  | e2f2 g2a2 _b2ag feg2 e2d2  | 
w:  gi bi  *  en   |  in *  *  ce  *  ye *  *  *  rin  | 
d8-d2c'2 baa4z2  | z4 g2a4a8-a2  | a8-a2gf edcB AGA2  | 
w:  den   SAZ  |  Üz *  gün   |   | 
z4 c'2c'2 b2b2 a2c'2 bag2  | b14b6  | \
w:  ve  kı *  rıl  |  mış   | 
babc' c'bag a2a4a4z2  | 
w:   | 
z4 a2a2 g2ag fef6  | e2f2 g2a2 _b2ag feg2 e2d2  | 
w:  gi bi  *  en   |  in *  *  ce  *  ye *  *  *  rin  | 
d8-d2B2 c2d4z2  | z4 d2e4e2 d2e2 d2c2  | \
w:  den   SAZ  |  Geç *  tim   | 
g2f2 e2f2 e2f2 e2g2 fed2  | 
w:  yi *  *  ne  *  dün   | 
d4 _7/8e2e2 d2d2 e2dc Bcd2  | g8-g2^3/4f_7/8e eddc d4  | \
w:  es *  ki  *  ha *  zan   |   | 
a2g2 f2e2 d2d2 f2ed c2B2  | 
w:  bah *  *  çe *  le *  rin  | 
d8-d2ef efd6  | cBA2 A2f4f2 e2f2 edc2  | \
w:  den   SAZ  |  *  *  *  Geç *  tim   | 
d2_7/8e2 ^3/4f2g2 {b}agf2 e2d2 c2B2  | 
w:  yi *  *  ne  *  *  *  dün   | 
^3/4f_7/8ede d2d4d2 =e2dc BABc  | \
w:  es *  *  *  *  ki  ha *  zan   | 
d8-d2c4c4B2  | c2B2 A2A4A2 c2B4A2  | 
w:   |  bah *  *  çe le *  rin  | 
A8-A2|
w:  den    | 


